symbolic/32x32/apps/half-life-blue-shift.svg

<svg width="32" height="32" version="1.1" xmlns="http://www.w3.org/2000/svg">
 <g>
  <path d="m16 2c-7.716 0-14 6.2843-14 14 0 7.716 6.2843 14 14 14 7.716 0 14-6.284 14-14 0-7.7157-6.284-14-14-14z" style="fill:#2298e2"/>
  <path d="m16 7a10 10 0 0 0-10 10 10 10 0 0 0 10 10 10 10 0 0 0 10-10 10 10 0 0 0-10-10zm-4.0112 2.9443h3.8318l4.3994 11.189 1.9348-0.62988 0.64453 2.1667-4.1724 1.2048-2.8064-7.1143-4.115 6.4844h-2.5806l5.7471-9.281-0.64453-1.8335h-2.2388v-2.1863z" style="opacity:.2"/>
  <path d="m16 6a10 10 0 0 0-10 10 10 10 0 0 0 10 10 10 10 0 0 0 10-10 10 10 0 0 0-10-10zm-4.0112 2.9443h3.8318l4.3994 11.189 1.9348-0.62988 0.64453 2.1667-4.1724 1.2048-2.8064-7.1143-4.115 6.4844h-2.5806l5.7471-9.281-0.64453-1.8335h-2.2388v-2.1863z" style="fill:#ffffff"/>
  <path d="m16 2c-7.716 0-14 6.2843-14 14 0 0.169 0.0194 0.333 0.0254 0.5 0.2664-7.4835 6.4273-13.5 13.975-13.5 7.547 0 13.708 6.0164 13.975 13.5 6e-3 -0.167 0.025-0.331 0.025-0.5 0-7.7157-6.284-14-14-14z" style="fill:#ffffff;opacity:.2"/>
  <path d="m2.0254 16.5c-6e-3 0.167-0.0254 0.331-0.0254 0.5 0 7.716 6.2843 14 14 14 7.716 0 14-6.284 14-14 0-0.169-0.019-0.333-0.025-0.5-0.267 7.484-6.428 13.5-13.975 13.5-7.5471 0-13.708-6.016-13.975-13.5z" style="opacity:.2"/>
 </g>
</svg>

<svg width="32" height="32" xmlns="http://www.w3.org/2000/svg"><path d="M16 2C8.284 2 2 8.284 2 16s6.284 14 14 14 14-6.284 14-14S23.716 2 16 2z" style="fill:#2298e2"/><path d="M16 7A10 10 0 0 0 6 17a10 10 0 0 0 10 10 10 10 0 0 0 10-10A10 10 0 0 0 16 7zm-4.011 2.944h3.832l4.399 11.19 1.935-.63.644 2.166-4.172 1.205-2.806-7.114-4.115 6.484H9.125l5.747-9.281-.645-1.833H11.99V9.944z" style="opacity:.2"/><path d="M16 6A10 10 0 0 0 6 16a10 10 0 0 0 10 10 10 10 0 0 0 10-10A10 10 0 0 0 16 6zm-4.011 2.944h3.832l4.399 11.19 1.935-.63.644 2.166-4.172 1.205-2.806-7.114-4.115 6.484H9.125l5.747-9.281-.645-1.833H11.99V8.944z" style="fill:#fff"/><path d="M16 2C8.284 2 2 8.284 2 16c0 .169.02.333.025.5C2.292 9.016 8.453 3 16 3s13.708 6.016 13.975 13.5c.006-.167.025-.331.025-.5 0-7.716-6.284-14-14-14z" style="fill:#fff;opacity:.2"/><path d="M2.025 16.5c-.006.167-.025.331-.025.5 0 7.716 6.284 14 14 14s14-6.284 14-14c0-.169-.019-.333-.025-.5C29.708 23.984 23.547 30 16 30S2.292 23.984 2.025 16.5z" style="opacity:.2"/></svg>
